coreui/free/cil-pen-nib.svg

<svg xmlns="http://www.w3.org/2000/svg" viewBox="0 0 512 512">
  <path fill="var(--ci-primary-color, currentColor)" d="M487.97,155.853a24.035,24.035,0,0,0-7-18.166L376.126,32.842a24,24,0,0,0-35.546,1.772L250.644,144.536,120.507,171.05a27.1,27.1,0,0,0-20.025,17.026L17.883,405.84a27.268,27.268,0,0,0,6.205,28.917l53.271,53.271a27.263,27.263,0,0,0,28.915,6.207L324.134,411.6a27.144,27.144,0,0,0,16.95-19.655l28.1-128.7L479.2,173.232A24.041,24.041,0,0,0,487.97,155.853Zm-177.6,226.741L97.807,463.222,84.665,450.079l99.36-99.36a56.061,56.061,0,1,0-22.268-22.986l-99.72,99.72L48.894,414.31,129.47,201.881l124.717-25.41,83.052,83.051ZM187.42,301.9a24,24,0,1,1,24,24A24,24,0,0,1,187.42,301.9Zm168.391-69.065L280.973,158,359.749,61.72l92.343,92.343Z" class="ci-primary"/>
</svg>

<svg viewBox="0 0 512 512" xmlns="http://www.w3.org/2000/svg"><path d="M487.97 155.853v0c.33-6.78-2.21-13.37-7-18.17L376.12 32.833v0c-9.38-9.38-24.57-9.38-33.95-.01 -.57.56-1.1 1.15-1.61 1.77l-89.936 109.92 -130.14 26.51v0c-9.17 1.84-16.74 8.27-20.03 17.02L17.86 405.807h0c-3.8 10.02-1.37 21.33 6.2 28.91l53.27 53.27h-.001c7.58 7.57 18.89 9.99 28.91 6.2l217.86-82.64h0c8.61-3.26 15-10.66 16.95-19.66l28.1-128.7 110.01-90.02v0c5.24-4.3 8.42-10.61 8.77-17.38Zm-177.6 226.74L97.8 463.213l-13.15-13.15 99.36-99.36h-.001c26.99 15.16 61.16 5.57 76.33-21.43 15.16-27 5.57-61.17-21.43-76.34 -27-15.17-61.17-5.58-76.34 21.42 -9.27 16.49-9.59 36.56-.85 53.34l-99.72 99.72 -13.15-13.15 80.576-212.43 124.71-25.41 83.05 83.05Zm-122.95-80.7v0c0-13.26 10.74-24 24-24 13.25 0 24 10.74 24 24 0 13.25-10.75 24-24 24v0c-13.26 0-24-10.75-24-24Zm168.39-69.065l-74.84-74.84 78.77-96.28 92.34 92.34Z"/></svg>
